X: 1822
T: Ralph Marwood's Waltz
B: australian traditional tunes wiki
M:3/4
L:1/8
R: Waltz
Q: 1/4=100
K:G
V:1 
D2||"G"G2A2B2|"C"E4D2|"G"G2A2B2|"C"E4D2|"D7"F2z2F2|"D7"E4D2|"G"G6-|"G"G4EF|
"C"G2F2G2|"D7"A2B2c2|"G"d2B2A2|"C"G4GA|"G"B2D2G2|"D7"A2D2F2|"G"G6-|"G"G4C2|
"D7"D2z2D2|"D7"E4F2|"G"G2B4-|"G"B4B2|"D7"A4B2|"D7"c2z2G2|"C"E6-|"C"E4G2|
"D7"F2z2G2|"D7"A4B2|"D7"c2z2A2|"D7"F4E2|"G"D2B,2D2|"G"B2z2G2|"D7"D6-|"D7"D4G2|
"C"C4D2|"D7"E4F2|"G"G2B4-|"G"B2c2B2|"D7"A4B2|"D7"c4G2|"C"E6-|"C"E4F2|
"G"G4A2|"C"G2F2E2|"G"D4G2|"G"B2c2B2|"D7"A2D3G|"D7"F4A2|"G"G6-|"G"G6||
% abcbook-tune_id 6342d53a4ec5bdb3ec8b4556


% abcbook-boost 0
% abcbook-tablature 
% abcbook-transpose 
% abcbook-lastupdated 1665324386079
% abcbook-soundfonts 
% abcbook-repeats 1
% NFF Book 2013

